static/assets/liquids/arkycite.svg

<?xml version="1.0" encoding="UTF-8" standalone="no"?>
<!-- Created with Inkscape (http://www.inkscape.org/) -->

<svg
   version="1.1"
   id="svg59"
   width="32"
   height="32"
   viewBox="0 0 32 32"
   sodipodi:docname="arkycite.svg"
   inkscape:version="1.2 (dc2aedaf03, 2022-05-15)"
   xmlns:inkscape="http://www.inkscape.org/namespaces/inkscape"
   xmlns:sodipodi="http://sodipodi.sourceforge.net/DTD/sodipodi-0.dtd"
   xmlns="http://www.w3.org/2000/svg"
   xmlns:svg="http://www.w3.org/2000/svg">
  <defs
     id="defs63" />
  <sodipodi:namedview
     id="namedview61"
     pagecolor="#505050"
     bordercolor="#eeeeee"
     borderopacity="1"
     inkscape:showpageshadow="0"
     inkscape:pageopacity="0"
     inkscape:pagecheckerboard="0"
     inkscape:deskcolor="#505050"
     showgrid="false"
     inkscape:zoom="11.313709"
     inkscape:cx="25.853592"
     inkscape:cy="21.169009"
     inkscape:window-width="1920"
     inkscape:window-height="1001"
     inkscape:window-x="-9"
     inkscape:window-y="-9"
     inkscape:window-maximized="1"
     inkscape:current-layer="g65" />
  <g
     inkscape:groupmode="layer"
     inkscape:label="Image"
     id="g65">
    <g
       id="g2308">
      <path
         style="fill:#d2dd76;fill-opacity:1"
         d="M 15,12.5 Q 15.25,12.25 15.625,12.125 16,12 16.5,12 q 0.5,0 1,0 0.5,0 1,0 0.5,0 0.875,0.125 0.375,0.125 0.625,0.375 0.25,0.25 0.5,0.5 0.25,0.25 0.5,0.5 0.25,0.25 0.5,0.5 0.25,0.25 0.375,0.625 Q 22,15 22,15.5 q 0,0.5 0,1 0,0.5 0,1 0,0.5 -0.125,0.875 Q 21.75,18.75 21.5,19 21.25,19.25 21,19.5 20.75,19.75 20.375,19.875 20,20 19.625,19.875 19.25,19.75 19,19.5 18.75,19.25 18.375,19.125 18,19 17.625,18.875 17.25,18.75 17,18.5 16.75,18.25 16.5,18 16.25,17.75 16,17.5 15.75,17.25 15.5,17 15.25,16.75 15.125,16.375 15,16 14.875,15.625 14.75,15.25 14.5,15 14.25,14.75 14.125,14.375 14,14 14.125,13.625 14.25,13.25 14.5,13 14.75,12.75 15,12.5"
         id="path2316" />
      <path
         style="fill:#3c7141;fill-opacity:1"
         d="m 11,12.5 q 0.25,-0.25 0.625,-0.375 L 12,12 v 0.5 Q 12,13 11.875,13.375 11.75,13.75 11.5,14 11.25,14.25 11,14.5 10.75,14.75 10.5,15 10.25,15.25 10.125,15.625 10,16 9.875,16.375 9.75,16.75 9.5,17 9.25,17.25 9.125,17.625 9,18 8.875,18.375 8.75,18.75 8.5,19 8.25,19.25 8.125,19.625 8,20 8,20.5 8,21 8.125,21.375 8.25,21.75 8.5,22 8.75,22.25 8.875,22.625 9,23 9.125,23.375 9.25,23.75 9.5,24 q 0.25,0.25 0.5,0.5 0.25,0.25 0.5,0.5 0.25,0.25 0.5,0.5 0.25,0.25 0.625,0.375 Q 12,26 12.375,26.125 12.75,26.25 13,26.5 13.25,26.75 13.625,26.875 14,27 14.5,27 q 0.5,0 1,0 0.5,0 1,0 0.5,0 1,0 0.5,0 0.875,-0.125 Q 18.75,26.75 19,26.5 19.25,26.25 19.625,26.125 20,26 20.375,25.875 20.75,25.75 21,25.5 21.25,25.25 21.625,25.125 22,25 22.375,24.875 22.75,24.75 23,24.5 23.25,24.25 23.5,24 23.75,23.75 24,23.5 24.25,23.25 24.625,23.125 L 25,23 v 0.5 Q 25,24 24.875,24.375 24.75,24.75 24.5,25 24.25,25.25 24.125,25.625 24,26 23.875,26.375 23.75,26.75 23.5,27 23.25,27.25 23,27.5 22.75,27.75 22.5,28 22.25,28.25 22,28.5 21.75,28.75 21.5,29 21.25,29.25 21,29.5 20.75,29.75 20.375,29.875 20,30 19.625,30.125 19.25,30.25 19,30.5 18.75,30.75 18.375,30.875 18,31 17.5,31 q -0.5,0 -1,0 -0.5,0 -1,0 -0.5,0 -1,0 -0.5,0 -1,0 -0.5,0 -1,0 Q 12,31 11.625,30.875 11.25,30.75 11,30.5 10.75,30.25 10.375,30.125 10,30 9.625,29.875 9.25,29.75 9,29.5 8.75,29.25 8.5,29 8.25,28.75 8,28.5 7.75,28.25 7.5,28 7.25,27.75 7,27.5 6.75,27.25 6.5,27 6.25,26.75 6.125,26.375 6,26 5.875,25.625 5.75,25.25 5.5,25 5.25,24.75 5.125,24.375 5,24 5,23.5 5,23 5,22.5 5,22 5,21.5 5,21 5,20.5 5,20 5,19.5 5,19 5.125,18.625 5.25,18.25 5.5,18 5.75,17.75 5.875,17.375 6,17 6.125,16.625 6.25,16.25 6.5,16 6.75,15.75 7,15.5 7.25,15.25 7.5,15 7.75,14.75 8,14.5 8.25,14.25 8.5,14 8.75,13.75 9,13.5 9.25,13.25 9.625,13.125 10,13 10.375,12.875 10.75,12.75 11,12.5 M 25,23.375 V 23 22.875 22.75 23 q 0,0.25 0,0.5 v 0.25 -0.375 m -13,-11 V 12 11.875 11.75 12 q 0,0.25 0,0.5 v 0.25 -0.375"
         id="path2314" />
      <path
         style="fill:#84a94b;fill-opacity:1"
         d="M 9,1.5 Q 9.25,1.25 9.625,1.125 10,1 10.5,1 11,1 11.375,1.125 11.75,1.25 12,1.5 12.25,1.75 12.625,1.875 13,2 13.375,2.125 13.75,2.25 14,2.5 14.25,2.75 14.625,2.875 15,3 15.375,3.125 15.75,3.25 16,3.5 16.25,3.75 16.5,4 16.75,4.25 17,4.5 17.25,4.75 17.5,5 17.75,5.25 18,5.5 18.25,5.75 18.5,6 18.75,6.25 19,6.5 19.25,6.75 19.5,7 19.75,7.25 19.875,7.625 20,8 20.125,8.375 20.25,8.75 20.5,9 q 0.25,0.25 0.5,0.5 0.25,0.25 0.5,0.5 0.25,0.25 0.375,0.625 Q 22,11 22.125,11.375 22.25,11.75 22.5,12 22.75,12.25 22.875,12.625 23,13 23.125,13.375 23.25,13.75 23.5,14 23.75,14.25 23.875,14.625 24,15 24.125,15.375 24.25,15.75 24.5,16 24.75,16.25 24.875,16.625 25,17 25,17.5 q 0,0.5 0,1 0,0.5 0,1 0,0.5 0,1 0,0.5 0,1 0,0.5 0,1 V 23 l -0.375,0.125 Q 24.25,23.25 24,23.5 23.75,23.75 23.5,24 23.25,24.25 23,24.5 22.75,24.75 22.375,24.875 22,25 21.625,25.125 21.25,25.25 21,25.5 20.75,25.75 20.375,25.875 20,26 19.625,26.125 19.25,26.25 19,26.5 18.75,26.75 18.375,26.875 18,27 17.5,27 q -0.5,0 -1,0 -0.5,0 -1,0 -0.5,0 -1,0 Q 14,27 13.625,26.875 13.25,26.75 13,26.5 12.75,26.25 12.375,26.125 12,26 11.625,25.875 11.25,25.75 11,25.5 10.75,25.25 10.5,25 10.25,24.75 10,24.5 9.75,24.25 9.5,24 9.25,23.75 9.125,23.375 9,23 8.875,22.625 8.75,22.25 8.5,22 8.25,21.75 8.125,21.375 8,21 8,20.5 8,20 8.125,19.625 8.25,19.25 8.5,19 8.75,18.75 8.875,18.375 9,18 9.125,17.625 9.25,17.25 9.5,17 9.75,16.75 9.875,16.375 10,16 10.125,15.625 10.25,15.25 10.5,15 10.75,14.75 11,14.5 11.25,14.25 11.5,14 11.75,13.75 11.875,13.375 12,13 12,12.5 12,12 12,11.5 12,11 12,10.5 12,10 11.875,9.625 11.75,9.25 11.5,9 11.25,8.75 11.125,8.375 11,8 11,7.5 11,7 10.875,6.625 10.75,6.25 10.5,6 10.25,5.75 10,5.5 9.75,5.25 9.5,5 9.25,4.75 9,4.5 8.75,4.25 8.5,4 8.25,3.75 8.125,3.375 8,3 8.125,2.625 8.25,2.25 8.5,2 8.75,1.75 9,1.5 M 19.625,19.875 Q 20,20 20.375,19.875 20.75,19.75 21,19.5 21.25,19.25 21.5,19 21.75,18.75 21.875,18.375 22,18 22,17.5 22,17 22,16.5 22,16 22,15.5 22,15 21.875,14.625 21.75,14.25 21.5,14 21.25,13.75 21,13.5 20.75,13.25 20.5,13 20.25,12.75 20,12.5 19.75,12.25 19.375,12.125 19,12 18.5,12 18,12 17.5,12 17,12 16.5,12 16,12 15.625,12.125 15.25,12.25 15,12.5 14.75,12.75 14.5,13 14.25,13.25 14.125,13.625 14,14 14.125,14.375 14.25,14.75 14.5,15 14.75,15.25 14.875,15.625 15,16 15.125,16.375 15.25,16.75 15.5,17 q 0.25,0.25 0.5,0.5 0.25,0.25 0.5,0.5 0.25,0.25 0.5,0.5 0.25,0.25 0.625,0.375 Q 18,19 18.375,19.125 18.75,19.25 19,19.5 q 0.25,0.25 0.625,0.375 M 25,23.125 V 23 22.625 22.25 22.5 q 0,0.25 0,0.5 v 0.25 -0.125"
         id="path2312" />
      <path
         style="fill:#000000;fill-opacity:0"
         d="M 0,0.5 V 0 H 0.5 1 1.5 2 2.5 3 3.5 4 4.5 5 5.5 6 6.5 7 7.5 8 8.5 9 9.5 10 10.5 11 11.5 12 12.5 13 13.5 14 14.5 15 15.5 16 16.5 17 17.5 18 18.5 19 19.5 20 20.5 21 21.5 22 22.5 23 23.5 24 24.5 25 25.5 26 26.5 27 27.5 28 28.5 29 29.5 30 30.5 31 31.5 32 V 0.5 1 1.5 2 2.5 3 3.5 4 4.5 5 5.5 6 6.5 7 7.5 8 8.5 9 9.5 10 10.5 11 11.5 12 12.5 13 13.5 14 14.5 15 15.5 16 16.5 17 17.5 18 18.5 19 19.5 20 20.5 21 21.5 22 22.5 23 23.5 24 24.5 25 25.5 26 26.5 27 27.5 28 28.5 29 29.5 30 30.5 31 31.5 32 H 31.5 31 30.5 30 29.5 29 28.5 28 27.5 27 26.5 26 25.5 25 24.5 24 23.5 23 22.5 22 21.5 21 20.5 20 19.5 19 18.5 18 17.5 17 16.5 16 15.5 15 14.5 14 13.5 13 12.5 12 11.5 11 10.5 10 9.5 9 8.5 8 7.5 7 6.5 6 5.5 5 4.5 4 3.5 3 2.5 2 1.5 1 0.5 0 V 31.5 31 30.5 30 29.5 29 28.5 28 27.5 27 26.5 26 25.5 25 24.5 24 23.5 23 22.5 22 21.5 21 20.5 20 19.5 19 18.5 18 17.5 17 16.5 16 15.5 15 14.5 14 13.5 13 12.5 12 11.5 11 10.5 10 9.5 9 8.5 8 7.5 7 6.5 6 5.5 5 4.5 4 3.5 3 2.5 2 1.5 1 0.5 M 17.5,31 Q 18,31 18.375,30.875 18.75,30.75 19,30.5 19.25,30.25 19.625,30.125 20,30 20.375,29.875 20.75,29.75 21,29.5 21.25,29.25 21.5,29 21.75,28.75 22,28.5 22.25,28.25 22.5,28 22.75,27.75 23,27.5 23.25,27.25 23.5,27 23.75,26.75 23.875,26.375 24,26 24.125,25.625 24.25,25.25 24.5,25 24.75,24.75 24.875,24.375 25,24 25,23.5 q 0,-0.5 0,-1 0,-0.5 0,-1 0,-0.5 0,-1 0,-0.5 0,-1 0,-0.5 0,-1 0,-0.5 0,-1 Q 25,17 24.875,16.625 24.75,16.25 24.5,16 24.25,15.75 24.125,15.375 24,15 23.875,14.625 23.75,14.25 23.5,14 23.25,13.75 23.125,13.375 23,13 22.875,12.625 22.75,12.25 22.5,12 22.25,11.75 22.125,11.375 22,11 21.875,10.625 21.75,10.25 21.5,10 21.25,9.75 21,9.5 20.75,9.25 20.5,9 20.25,8.75 20.125,8.375 20,8 19.875,7.625 19.75,7.25 19.5,7 19.25,6.75 19,6.5 18.75,6.25 18.5,6 18.25,5.75 18,5.5 17.75,5.25 17.5,5 17.25,4.75 17,4.5 16.75,4.25 16.5,4 16.25,3.75 16,3.5 15.75,3.25 15.375,3.125 15,3 14.625,2.875 14.25,2.75 14,2.5 13.75,2.25 13.375,2.125 13,2 12.625,1.875 12.25,1.75 12,1.5 11.75,1.25 11.375,1.125 11,1 10.5,1 10,1 9.625,1.125 9.25,1.25 9,1.5 8.75,1.75 8.5,2 8.25,2.25 8.125,2.625 8,3 8.125,3.375 8.25,3.75 8.5,4 8.75,4.25 9,4.5 9.25,4.75 9.5,5 9.75,5.25 10,5.5 10.25,5.75 10.5,6 10.75,6.25 10.875,6.625 11,7 11,7.5 11,8 11.125,8.375 11.25,8.75 11.5,9 11.75,9.25 11.875,9.625 12,10 12,10.5 q 0,0.5 0,1 V 12 l -0.375,0.125 Q 11.25,12.25 11,12.5 10.75,12.75 10.375,12.875 10,13 9.625,13.125 9.25,13.25 9,13.5 8.75,13.75 8.5,14 8.25,14.25 8,14.5 7.75,14.75 7.5,15 7.25,15.25 7,15.5 6.75,15.75 6.5,16 6.25,16.25 6.125,16.625 6,17 5.875,17.375 5.75,17.75 5.5,18 5.25,18.25 5.125,18.625 5,19 5,19.5 q 0,0.5 0,1 0,0.5 0,1 0,0.5 0,1 0,0.5 0,1 Q 5,24 5.125,24.375 5.25,24.75 5.5,25 5.75,25.25 5.875,25.625 6,26 6.125,26.375 6.25,26.75 6.5,27 6.75,27.25 7,27.5 7.25,27.75 7.5,28 7.75,28.25 8,28.5 8.25,28.75 8.5,29 8.75,29.25 9,29.5 9.25,29.75 9.625,29.875 10,30 10.375,30.125 10.75,30.25 11,30.5 11.25,30.75 11.625,30.875 12,31 12.5,31 q 0.5,0 1,0 0.5,0 1,0 0.5,0 1,0 0.5,0 1,0 0.5,0 1,0 M 12,12.125 V 12 11.625 11.25 11.5 q 0,0.25 0,0.5 v 0.25 -0.125"
         id="path2310" />
    </g>
  </g>
</svg>

<svg version="1.1" id="svg59" width="32" height="32" xmlns="http://www.w3.org/2000/svg"><g id="g65"><g id="g2308"><path style="fill:#d2dd76;fill-opacity:1" d="m15 12.5.6-.4.9-.1h2l.9.1.6.4.5.5.5.5.5.5.4.6.1.9v2l-.1.9q-.1.4-.4.6l-.5.5-.6.4q-.4.1-.8 0t-.6-.4l-.6-.4-.8-.2q-.4-.1-.6-.4l-.5-.5-.5-.5-.5-.5-.4-.6-.2-.8-.4-.6-.4-.6q-.1-.4 0-.8l.4-.6.5-.5" id="path2316"/><path style="fill:#3c7141;fill-opacity:1" d="m11 12.5.6-.4.4-.1v.5l-.1.9-.4.6-.5.5-.5.5-.4.6-.2.8-.4.6-.4.6-.2.8-.4.6-.4.6-.1.9.1.9.4.6.4.6.2.8.4.6.5.5.5.5.5.5.6.4.8.2.6.4.6.4.9.1h3l.9-.1q.4-.1.6-.4l.6-.4.8-.2q.4-.1.6-.4l.6-.4.8-.2q.4-.1.6-.4l.5-.5.5-.5.6-.4.4-.1v.5l-.1.9q-.1.4-.4.6l-.4.6-.2.8q-.1.4-.4.6l-.5.5-.5.5-.5.5-.5.5-.5.5-.6.4-.8.2q-.4.1-.6.4l-.6.4-.9.1h-5l-.9-.1-.6-.4-.6-.4-.8-.2-.6-.4-.5-.5-.5-.5-.5-.5-.5-.5-.5-.5-.4-.6-.2-.8-.4-.6-.4-.6-.1-.9v-4l.1-.9.4-.6.4-.6.2-.8.4-.6.5-.5.5-.5.5-.5.5-.5.5-.5.6-.4.8-.2.6-.4m14 10.9v-.6 1-.4m-13-11v-.7 1.1-.4" id="path2314"/><path style="fill:#84a94b;fill-opacity:1" d="m9 1.5.6-.4.9-.1.9.1.6.4.6.4.8.2.6.4.6.4.8.2.6.4.5.5.5.5.5.5.5.5.5.5.5.5.5.5.4.6.2.8.4.6.5.5.5.5.4.6.2.8.4.6.4.6.2.8.4.6.4.6.2.8.4.6.4.6.1.9V23l-.4.1q-.4.1-.6.4l-.5.5-.5.5-.6.4-.8.2q-.4.1-.6.4l-.6.4-.8.2q-.4.1-.6.4l-.6.4-.9.1h-3l-.9-.1-.6-.4-.6-.4-.8-.2-.6-.4-.5-.5-.5-.5-.5-.5-.4-.6-.2-.8-.4-.6-.4-.6-.1-.9.1-.9.4-.6.4-.6.2-.8.4-.6.4-.6.2-.8.4-.6.5-.5.5-.5.4-.6.1-.9v-2l-.1-.9-.4-.6-.4-.6-.1-.9-.1-.9-.4-.6-.5-.5-.5-.5-.5-.5-.5-.5-.4-.6q-.1-.4 0-.8l.4-.6.5-.5m10.6 18.4q.4.1.8 0t.6-.4l.5-.5.4-.6.1-.9v-2l-.1-.9-.4-.6-.5-.5-.5-.5-.5-.5-.6-.4-.9-.1h-2l-.9.1-.6.4-.5.5-.4.6q-.1.4 0 .8l.4.6.4.6.2.8.4.6.5.5.5.5.5.5.6.4.8.2q.4.1.6.4l.6.4M25 23v-.9 1.1-.2" id="path2312"/><path style="fill:#000;fill-opacity:0" d="M0 .5V0h32v32H0V.5M17.5 31l.9-.1q.4-.1.6-.4l.6-.4.8-.2q.4-.1.6-.4l.5-.5.5-.5.5-.5.5-.5.5-.5.4-.6.2-.8q.1-.4.4-.6l.4-.6.1-.9v-6l-.1-.9q-.1-.4-.4-.6l-.4-.6-.2-.8-.4-.6-.4-.6-.2-.8-.4-.6-.4-.6-.2-.8-.4-.6-.5-.5-.5-.5-.4-.6-.2-.8-.4-.6-.5-.5-.5-.5-.5-.5-.5-.5-.5-.5-.5-.5-.5-.5-.6-.4-.8-.2-.6-.4-.6-.4-.8-.2-.6-.4-.6-.4-.9-.1-.9.1-.6.4-.5.5-.4.6q-.1.4 0 .8l.4.6.5.5.5.5.5.5.5.5.4.6.1.9.1.9.4.6.4.6.1.9V12l-.4.1-.6.4-.6.4-.8.2-.6.4-.5.5-.5.5-.5.5-.5.5-.5.5-.4.6-.2.8-.4.6-.4.6-.1.9v4l.1.9.4.6.4.6.2.8.4.6.5.5.5.5.5.5.5.5.5.5.6.4.8.2.6.4.6.4.9.1h5M12 12.1v-.8 1-.2" id="path2310"/></g></g></svg>
